X: 19
T: Come Along John
M:2/4
L:1/8
S: Viola "Mom" Ruth - Pioneer Western Folk Tunes (1948)
Z:AK/Fiddler's Companion
K:G
D|:G>GAd|B/d/A/d/ B/GD/|G>GAd|B/G/A/F/ G>D:|
e2{f}e2|f/e/d/f/ e/d/B/A/|d<d f/ed/|B/G/A/F/ Gd|
e2{f}e2|g/f/e/g/ f/e/d/B/|d<e f/ed/|B/G/A/F/ G2||

%%sep 1 1 500
